!!! OTL: Berkowitz366
!!! Chapter: 1
!!! Section: III
!!! Page: 90
!!! Mode: 
!!! Encoder: DJB
**kern
*staff1
*I"Piano
=1-
*clefG2
*k[f#c#]
*D:
*M6/8
8f#/L
8g/
8a/J
8a/L
8g/
8f#/J
=2
4g/
8b\
4e/
8g/
=3
4c#/
8e/
8A/L
8a/
8g/J
=4
8f#/L
8e/
8d/J
8r
8e/L
8g/J
=5
8f#/L
8e/
8d/J
8e/L
8f#/
8g/J
=6
8f#/L
8e/
8d/J
8r
8f#/L
8a/J
=7
8g/L
8f#/
8e/J
8f#/L
8g/
8a/J
=8
!!linebreak:original
8g/L
8f#/
8e/J
8r
8a\L
8dd\J
=9
8b/L
8a/
8g/J
8f#/L
8g/
8a/J
=10
8g/L
8f#/
8e/J
8b/L
8g/
8f#/J
=11
8e/L
8d#/
8e/J
8g/L
8e/
8dn/J
=12
8c#/L
8A/J
8r
8r
8r
8g/
=13
8f#/L
8e/
8d/J
8e/L
8f#/
8g/J
=14
!!linebreak:original
8f#/L
8d/J
8r
8r
8b/L
8a/J
=15
8g/L
8f#/
8e/J
8f#/L
8g/
8a/J
=16
8g/L
8f#/
8e/J
8r
8dd\L
8ccn\J
=17
8b/L
8a/
8g/J
8f#/L
8g/
8a/J
=18
8g/L
8f#/
8e/J
8d#/L
8e/
8f#/J
=19
8g/L
8a/
8b/J
8cc#\L
8dd\
8ee\J
=20
!!linebreak:original
8.dd\L
16cc#\K
8dd\J
4.d/
==
*-
